icons/icn_impresora.svg

<svg width="24" xmlns="http://www.w3.org/2000/svg" height="24" id="screenshot-e387bb83-ae60-800e-8006-366ae6e63e49" viewBox="0 0 24 24" xmlns:xlink="http://www.w3.org/1999/xlink" fill="none" version="1.1"><g id="shape-e387bb83-ae60-800e-8006-366ae6e63e49"><g class="frame-container-wrapper"><g class="frame-container-blur"><g class="frame-container-shadows"><g fill="none"><g class="fills" id="fills-e387bb83-ae60-800e-8006-366ae6e63e49"><rect rx="0" ry="0" x="0" y="0" width="24" height="24" transform="matrix(1, 0, 0, 1, 0, 0)" class="frame-background"/></g><g class="frame-children"><g id="shape-e387bb83-ae60-800e-8006-366ae6e63e63" rx="0" ry="0" style="fill: rgb(0, 0, 0);"><g id="shape-e387bb83-ae60-800e-8006-366ae6e63e64"><g class="fills" id="fills-e387bb83-ae60-800e-8006-366ae6e63e64"><path d="M2.554744005203247,6.001244068145752C2.247615098953247,6.001244068145752,2.003230333328247,6.255882740020752,2.000056505203247,6.571556568145752L1.9141188859939575,15.430931091308594C1.9109450578689575,15.746604919433594,2.159724473953247,16.001243591308594,2.466853380203247,16.001243591308594L6.000056266784668,16.001243591308594L6.000056266784668,21.522727966308594C6.000056266784668,21.752342224121094,6.296931266784668,22.001243591308594,6.552790641784668,22.001243591308594L17.566463470458984,22.001243591308594C17.822322845458984,22.001243591308594,18.003719329833984,21.773826599121094,18.000057220458984,21.544212341308594L18.000057220458984,16.001243591308594L21.400447845458984,16.001243591308594C21.707576751708984,16.001243591308594,21.955135345458984,15.746604919433594,21.955135345458984,15.430931091308594L21.957088470458984,6.571556568145752C21.957088470458984,6.255882740020752,21.709529876708984,6.001244068145752,21.402400970458984,6.001244068145752ZM5.326228141784668,7.954369068145752C5.805720329284668,7.954613208770752,6.265437126159668,8.145286560058594,6.604060173034668,8.484519958496094C6.942927360534668,8.823631286621094,7.133112907409668,9.283592224121094,7.132868766784668,9.762962341308594C7.132380485534668,10.760520935058594,6.323786735534668,11.569114685058594,5.326228141784668,11.569602966308594C4.328669548034668,11.569114685058594,3.520076036453247,10.760520935058594,3.519587755203247,9.762962341308594C3.519343614578247,9.283592224121094,3.709529161453247,8.823631286621094,4.048396110534668,8.484519958496094C4.387019157409668,8.145286560058594,4.846735954284668,7.954613208770752,5.326228141784668,7.954369068145752ZM8.334040641784668,14.274681091308594L15.666071891784668,14.274681091308594C15.850642204284668,14.274681091308594,16.000057220458984,14.390281677246094,16.000057220458984,14.534446716308594L16.000057220458984,19.741477966308594C16.000057220458984,19.885765075683594,15.850642204284668,20.001243591308594,15.666071891784668,20.001243591308594L8.334040641784668,20.001243591308594C8.149470329284668,20.001243591308594,8.000056266784668,19.885765075683594,8.000056266784668,19.741477966308594L8.000056266784668,14.534446716308594C8.000056266784668,14.390281677246094,8.149470329284668,14.274681091308594,8.334040641784668,14.274681091308594Z" style="stroke-width: 0.403535; stroke-linejoin: round; paint-order: markers; fill: rgb(0, 0, 0); fill-opacity: 1;"/></g></g><g id="shape-e387bb83-ae60-800e-8006-366ae6e63e65"><g class="fills" id="fills-e387bb83-ae60-800e-8006-366ae6e63e65"><rect rx="0" ry="0" x="8.00125984251963" y="2.003149606299303" transform="matrix(1, 0, 0, 1, 0, 0)" width="8.00125984251963" height="3.000944881889609" style="stroke: none; stroke-width: 0.138169; stroke-linejoin: round; stroke-dasharray: none; paint-order: markers; fill: rgb(0, 0, 0); fill-opacity: 1;"/></g></g></g></g></g></g></g></g></g></svg>

<svg fill="none" viewBox="0 0 24 24"><g class="frame-container-wrapper"><g class="frame-container-blur"><g class="frame-container-shadows"><g class="fills"><rect width="24" height="24" class="frame-background" rx="0" ry="0"/></g><g fill="#000" class="frame-children"><path d="M2.5547 6.0012c-.307 0-.5515.2547-.5546.5704l-.086 8.8593c-.0032.3157.2456.5703.5528.5703H6v5.5215c0 .2296.2968.4785.5527.4785h11.0137c.2558 0 .4372-.2274.4336-.457v-5.543h3.4003c.3072 0 .5547-.2546.5547-.5703l.002-8.8593c0-.3157-.2476-.5704-.5547-.5704Zm2.7715 1.9532A1.8074 1.8074 0 0 1 7.1328 9.763c-.0004.9975-.809 1.8061-1.8066 1.8066-.9975-.0005-1.8061-.809-1.8066-1.8066a1.8074 1.8074 0 0 1 1.8066-1.8086Zm3.0078 6.3203h7.332c.1846 0 .334.1156.334.2597v5.207c0 .1444-.1494.2598-.334.2598H8.334c-.1845 0-.334-.1154-.334-.2597v-5.207c0-.1442.1495-.2598.334-.2598Z" class="fills" paint-order="markers"/><rect width="8.0013" height="3.0009" x="8.0013" y="2.0031" class="fills" paint-order="markers" rx="0" ry="0"/></g></g></g></g></svg>
